X:68
T:Merrily Kiss the Quaker
R:jig
M:6/8
Z:Richard Robinson 
K:G
D | GAB D2B | c2A BAG | GAB DEG | A3 A2D | GAB D2B | c2A BAG |
GAB D2F | G3 G2 :: A | BGG AGG | BGG AGG | GAB DEG | A3 A2A |
BGG AGG | BGG AGG | GAB D2E | G3 G2 :: d | g3 aga | bge dBG |
g2d gab | a3 a2f | gag fgf | efe dBA | GAB D2E | G3 G2:|
